X:22001
T:Vandals of Hammerwich
R:Polka
C:Trad. Morris
O:England; Lichfield
Z:Paul Hardy's Session Tunebook 2022 (see www.paulhardy.net). Creative Commons cc by-nc-sa licenced.
M:2/2
L:1/8
Q:1/2=100
K:G
D2|"G"D2 G2 B2 G2|D2 G2 B2 G2|"D"d4 d3 d|d6 d2|"G"D2 G2 B2 G2|D2 G2 B2 G2|"D"d2 c2 A2 F2|"G"G6|
|:Bc|"G"d4 d3 d|"D"d6 d2|"Em"e2 g2 f2 e2|"G"e2 d2 d3 e|"C"d2 c2 c3 c|"G"c2 B2 B3 B|"D"d2 c2 A2 F2|"G"G6:|

